X: 17535
T: Hills Of Tara, The
R: barndance
M: 4/4
K: Cmajor
d2 g2 g2 fg|a2 ga gf d2|1 c2 f2 f2 ef|g2 f2 e2 d2:|2 c2 de f2 cd|A2 G2 G4||
|:d2 g2 g2 fg|a2 ga gf d2|1 c2 f2 f2 ef|g2 f2 e2 d2:|2 c2 de f2 cd|A2 G2 G4||
|:D2 G2 G2 (3ABc|d2 d2 cA G2|1 C2 F2 F3 G:|2 F3 G F3 G||
A2 G2 F2 D2|D2 G2 G2 (3ABc|1 df dc d2 g2|f2 d2 df dc:|2 df dc "slide"(3(ABc c)|d2 g2 df dc||A2 G2 G4:|

